X:18
T: VON MEINEN BERGEN MUSS I SCHEIDE
N: B0504
O: Europa, Mitteleuropa, Deutschland, Thueringen; Sachsen; Schweiz?
R: Abschieds - Lied
M: 3/4
L: 1/16
K: F
C2F2G2 | A6E2G2F2 | E4D2
D2G2A2 | c6B2D2E2 | F4z2
C2F2G2 | A6E2G2F2 | E4D2
D2G2A2 | c6B2D2E2 | F4z2
C2F2G2 | A2F2d6A2 | c4B2
C2E2G2 | B2G2e6B2 | d4c2
C2F2A2 | c2A2a4g2f2 | e4d4
B2G2 | F2E2d2c2B2G2 | F4z8
G2GAG2GAG2GA | G4e6
f2 | e4d6=B2 | d4c8
B2A2G2A2B2=B2 | c4a6
b2 | a4g4a3g | f4z2

